X:45
T:Pride of Scotland. JJo8.045, The
B:J.Johnson Choice Collection Vol 8 1758
Z:vmp.Simon Wilson 2013 www.village-music-project.org.uk
M:C|
L:1/8
Q:1/2=90
K:G
d|(gf)(gd) e/e/e .e.g|(dB)(AG) A/A/A .A.B|(GE)(DE) (GB)(dg)|(ed)(e>g)e3:|
|:d|g2(ga) (ge)(dg)|e/e/e edB2Bd|e2cef2df|g2eg (ae)(fd)|
g2(ga) (ge)(dg)|(dB)(AG) A/A/A .A.B|(GE)(DE) G2.G>.B|(AG)(G>B) G3:|
